X:901
T:The Kinnegad Slashers.
T:Land of Sweet Erin
T:The Powers of Whiskey
T:Bannocks of Barley Meal
B:O'Neill's 901
N:"collected by F. O'Neill."
Z:Transcribed by Tom Keays (htkeays@mailbox.syr.edu)
Z:abc 1.6
M:6/8
R:Jig
L:1/8
K:D
A|ded dAF|ABA ABc|ded dAF|Eee e2f|
ded dAF|ABA Aag|gfef dBA|Bdd d2 :|
||A|dfa afd|cde ecA|dfa afd|faa a2A|
dfa afd|cde eag|gfef dBA|Bdd d2 :|
||3A/2B/2c/2|dAF dAF|ABA ABc|dAF dAF|Eee e2f|
dAF dAF|ABA Aag|gfef dBA|Bdd d2 :|
